X:1
T:Unsearchable Riches
T:Unsearchable Riches
T:John Robson Sweney
T:Frances Jane (Fanny) Crosby, 1882
T:Public Domain Courtesy of the Cyber Hymnal™
C:John Robson Sweney
Z:Public Domain
Z:Courtesy of the Cyber Hymnal™
%%score ( 1 2 ) ( 3 4 )
L:1/8
Q:1/4=100
M:6/8
K:Bb
V:1 treble 
V:2 treble 
V:3 bass 
V:4 bass 
V:1
 [DF]>[DF][DF] [DF][B,D][DF] | [EB]>[EB][EB] [EB]3 | [Fc][Fc][Fc] [FB][FB][Fc] | [Fd]6 | %4
w: 1.~Oh, the un- search- a- ble|rich- es of Christ,|Wealth that can ne- ver be|told!|
w: 2.~Oh, the un- search- a- ble|rich- es of Christ,|Who shall their great- ness de-|clare?|
w: 3.~Oh, the un- search- a- ble|rich- es of Christ,|Free- ly, how free- ly they|flow,|
w: 4.~Oh, the un- search- a- ble|rich- es of Christ,|Who would not glad- ly en-|dure|
 [Fd]>[Fd][Fd] [Fd][Fc][FB] | [Ec][EB][EG] [EG]3 | [DF][DF][FB] [FB][FB][EA] | [DB]6 || %8
w: Rich- es ex- haust- less of|mer- cy and grace,|Pre- cious, more pre- cious than|gold!|
w: Jew- els whose lus- ter our|lives may a- dorn,|Pearls that the poor- est may|wear!|
w: Mak- ing the souls of the|faith- ful and true|Hap- py wher- ev- er they|go!|
w: Tri- als, af- flict- ions, and|cross- es on earth,|Rich- es like these to se-|cure!|
"^Refrain" [Fc]3 F2 [Fe] | [Fd]3 [DB]3 | [=Ed][Ec][EB] [EA][EB][EG] | F6 | %12
w: ||||
w: ||||
w: ||||
w: ||||
 [Fd]>[Fd][Fd] [Fd][Fc][FB] | [Ec][EB][EG] [EG]3 | [DF][DF][FB] [FB][FB][EA] | [DB]6 |] %16
w: ||||
w: ||||
w: ||||
w: ||||
V:2
 x6 | x6 | x6 | x6 | x6 | x6 | x6 | x6 || x3 F2 x | x6 | x6 | F6 | x6 | x6 | x6 | x6 |] %16
V:3
 [B,,B,]>[B,,B,][B,,B,] [B,,B,][B,,F,][B,,B,] | [B,,F,]>[B,,F,][B,,F,] [B,,F,]3 | %2
w: ~ ~ ~ ~ ~ ~|~ ~ ~ ~|
 [F,A,][F,A,][E,A,] [D,B,][D,B,][C,A,] | [B,,B,]6 | B,>B,B, [B,,B,][C,A,][D,B,] | %5
w: ~ ~ ~ ~ ~ ~|~|~ ~ ~ ~ ~ ~|
 [E,G,][E,G,][E,B,] [E,B,]3 | [F,B,][F,B,][F,D] [F,D][F,D][F,C] | [B,,B,]6 || %8
w: ~ ~ ~ ~|~ ~ ~ ~ ~ ~|~|
 [F,A,]3 [F,A,]2 [F,C] | [B,,B,]3 [B,,B,]3 | [C,G,][C,G,][C,G,] [C,C][C,C][C,B,] | [F,A,]6 | %12
w: Pre- cious, more|pre- cious,|Wealth that can ne- ver be|told!|
 B,>B,B, [B,,B,][C,A,][D,B,] | [E,G,][E,G,][E,B,] [E,B,]3 | [F,B,][F,B,][F,D] [F,D][F,D][F,C] | %15
w: Oh, the un- search- a- ble|rich- es of Christ!|Pre- cious, more pre- cious than|
 [B,,B,]6 |] %16
w: gold.|
V:4
 x6 | x6 | x6 | x6 | x6 | x6 | x6 | x6 || x6 | x6 | x6 | x6 | B,>B,B, x3 | x6 | x6 | x6 |] %16

